X:1
T:Invitatory Antiphon Tones (Gregorian)
C:Gregorian chant; ancient, public domain
S:Traditional Gregorian chant; public domain
M:C
L:1/4
K:C
%% Antiphon I: The Lord is God (Mode 8)
G G G G | G G G | F E D2 | E F G A | G4 ||
%% Antiphon II: Come, let us worship and bow down (Mode 2)
E G A G | F E D2 | E G A B | c B A G | G4 ||
%% Antiphon III: Christ the Lord is born (Mode 6, Christmas)
F G A G | F E D2 | F G A B | c A G F | F4 ||

## Musiquik
&0VVVV.VVV.UTc.TUVW.v)TVWV.UTc.TVWX.YXWV.v)UVWV.UTc.UVWX.YWVU.u)

#Lyrics
[Antiphon I] The Lord is God; come, let us adore Him. [Antiphon II] Come, let us worship and bow down; let us kneel before the Lord our Maker. [Antiphon III] Christ the Lord is born today; come, let us worship Him.  [Venite — Psalm 95] Oh come, let us sing to the Lord...

#Citations and References

Words: Various antiphon texts; ancient; public domain.
Music: 'Invitatory Antiphon Tones' Gregorian chant; ancient, public domain.
Setting: Lutheran Service Book (LSB), Morning Prayer (Matins); traditional.
copyright: public domain.

https://openhymnal.org
